vendor/shopware/storefront/Resources/app/storefront/dist/assets/icon/default/x-circle.svg

<svg xmlns="http://www.w3.org/2000/svg" width="24" height="24" viewBox="0 0 24 24">
  <path fill="#758CA3" fill-rule="evenodd" d="M10.5857864,12 L7.29289322,8.70710678 C6.90236893,8.31658249 6.90236893,7.68341751 7.29289322,7.29289322 C7.68341751,6.90236893 8.31658249,6.90236893 8.70710678,7.29289322 L12,10.5857864 L15.2928932,7.29289322 C15.6834175,6.90236893 16.3165825,6.90236893 16.7071068,7.29289322 C17.0976311,7.68341751 17.0976311,8.31658249 16.7071068,8.70710678 L13.4142136,12 L16.7071068,15.2928932 C17.0976311,15.6834175 17.0976311,16.3165825 16.7071068,16.7071068 C16.3165825,17.0976311 15.6834175,17.0976311 15.2928932,16.7071068 L12,13.4142136 L8.70710678,16.7071068 C8.31658249,17.0976311 7.68341751,17.0976311 7.29289322,16.7071068 C6.90236893,16.3165825 6.90236893,15.6834175 7.29289322,15.2928932 L10.5857864,12 Z M12,2 C6.4771525,2 2,6.4771525 2,12 C2,17.5228475 6.4771525,22 12,22 C17.5228475,22 22,17.5228475 22,12 C22,6.4771525 17.5228475,2 12,2 Z M24,12 C24,18.627417 18.627417,24 12,24 C5.372583,24 8.11624501e-16,18.627417 0,12 C6.29380286e-15,5.372583 5.372583,3.29258647e-16 12,-8.8817842e-16 C18.627417,-3.29258647e-16 24,5.372583 24,12 Z"/>
</svg>

<svg xmlns="http://www.w3.org/2000/svg" width="24" height="24" viewBox="0 0 24 24"><path fill="#758CA3" fill-rule="evenodd" d="m10.5858 12-3.293-3.2929c-.3904-.3905-.3904-1.0237 0-1.4142.3906-.3905 1.0238-.3905 1.4143 0L12 10.5858l3.2929-3.293c.3905-.3904 1.0237-.3904 1.4142 0 .3905.3906.3905 1.0238 0 1.4143L13.4142 12l3.293 3.2929c.3904.3905.3904 1.0237 0 1.4142-.3906.3905-1.0238.3905-1.4143 0L12 13.4142l-3.2929 3.293c-.3905.3904-1.0237.3904-1.4142 0-.3905-.3906-.3905-1.0238 0-1.4143L10.5858 12zM12 2C6.4772 2 2 6.4772 2 12s4.4772 10 10 10 10-4.4772 10-10S17.5228 2 12 2zm12 10c0 6.6274-5.3726 12-12 12S0 18.6274 0 12 5.3726 0 12 0s12 5.3726 12 12z"/></svg>
